!!!OTL@@DE: Joseph
!!!COM: M&eacute;hul, Etienne Henri
!!!OPR: Oper: "Joseph"
!!!ODT: 1807
!!!OMD: Andante
!!!ONB: Nach Duval's Dichtung, deutsch
!!!LDT: 1809
!!!OCL: Erk, Ludwig
!!!GCO: Deutscher Liederschatz, Band 1
**kern	**kern	**kern
*staff3	*staff2	*staff1
*Ipiano	*Ipiano	*Ivox
*>[A,B,B,C]	*>[A,B,B,C]	*>[A,B,B,C]
*>norep[A,B,C]	*>norep[A,B,C]	*>norep[A,B,C]
*>A	*>A	*>A
*clefG2	*clefG2	*clefG2
*k[]	*k[]	*k[]
*C:	*C:	*C:
*M2/4	*M2/4	*M2/4
*MM76	*MM76	*MM76
8e/	(8gg\	8r
=1	=1	=1
*>B	*>B	*>B
8c/ 8g/L	8ee\ 8ccc\L)	2r
8e/	(8gg\	.
8c/ 8g/	8ee\ 8ccc\)	.
8e/J	(8gg\J	.
=2	=2	=2
4c/ 4g/	4ee\ 4ccc\)	4r
4r	(16c/LL	8r
.	16e/	.
.	16g/	16g/
.	16cc/JJ)	16cc\
*clefF4	*	*
=3	=3	=3
*^	*	*
16C/LL	4.C\	(8.ee\L	8.ee\
16E/	.	.	.
16G/	.	.	.
16F/JJ	.	16dd\Jk)	16dd\
16E/LL	.	(16dd\LL	(16dd\LL
16G/JJ	.	16cc\JJ)	16cc\JJ)
8c/	8E\	(8g\	(16cc\LL
.	.	.	16b\JJ)
*v	*v	*	*
=4	=4	=4
4.F\ 4.c\	4g/ (4b/)	(8.b/L
.	.	16a/Jk)
.	8f/ 8a/L)	8a/
8D\	8f/ 8dd/J	16dd\
.	.	16dd\
=5	=5	=5
*	*^	*
4G\	(4cc/	16e\LL	8.cc\
.	.	16g\	.
.	.	16e\	.
.	.	16g\JJ	16cc\
4GG/	4b/	16f\LL	8.b\
.	.	16g\	.
.	.	16f\	.
.	.	16g\JJ	16b\
=6	=6	=6	=6
4C/	4cc/)	16e\LL	4cc\
.	.	16g\	.
.	.	16e\	.
.	.	16g\JJ	.
4r	(16c/LL	4r	8r
.	16e/	.	.
.	16g/	.	16g/
.	16cc/JJ)	.	16cc\
*	*v	*v	*
=7	=7	=7
*^	*	*
16C/LL	(4.C\	(8.ee\L	8.ee\
16E/	.	.	.
16G/	.	.	.
16F/JJ	.	16dd\Jk)	16dd\
16E/LL	.	(16dd\LL	(16dd\LL
16G/JJ	.	16cc\JJ)	16cc\JJ)
8c/	8E\)	8g\	(16cc\LL
.	.	.	16b\JJ)
*v	*v	*	*
=8	=8	=8
4.F\ 4.c\	4g/ (4b/	(8.b/L
.	.	16a/Jk)
.	8f/ 8a/L)	8a/
8F\	8f/ 8a/ 8dd/J	16dd\
.	.	16dd\
=9	=9	=9
*	*^	*
4G\	(4cc/	16e\LL	8.cc\
.	.	16g\	.
.	.	16e\	.
.	.	16g\JJ	16cc\
4GG/	4b/	16f\LL	8.b\
.	.	16g\	.
.	.	16f\	.
.	.	16g\JJ	16b\
=10	=10	=10	=10
(8.C/L	4cc/)	16e\LL	4cc\
.	.	16g\J	.
.	.	8e\J	.
16BB/Jk	.	.	.
16AA/LL	4r	4r	8r
16GG/	.	.	.
16FF/	.	.	16a/
16EE/JJ)	.	.	16a/
*	*v	*v	*
=11	=11	=11
2DD/	(16d/ 16f/LL	8.dd\
.	16A/	.
.	16d/ 16f/	.
.	16A/JJ)	16dd\
.	(16e/ 16g/LL	(8cc#\L
.	16A/	.
.	16c#/ 16g/	16dd\Jk)
.	16A/JJ)	16ee\
=12	=12	=12
4.D\	16d/ 16f/LL	(8.ff\L
.	16A/	.
.	16d/ 16f/	.
.	16A/JJ	16ee\Jk)
.	16d/ 16f/LL	8dd\
.	16A/	.
8BB/	16d/ 16f/	16dd\
.	16G/JJ	16dd\
=13	=13	=13
8C/L	16cn/ 16e/LL	8ccn\
.	16G/	.
8BB/	16d/ 16f/	8dd\
.	16G/JJ	.
8C/	16c/ 16e/LL	8cc\
.	16G/	.
8AA/J	16c/ 16f#/	8cc\
.	16A/JJ	.
=14	=14	=14
4.GG;/	16B/ 16g/LL	4.dd;\
.	16d/	.
.	16B/ 16g/	.
.	16d/JJ	.
.	8B;/ 8g;/	.
8r	8r	16g/
.	.	16g/
=15	=15	=15
4r	8r	8cc\
.	8g'\ (8dd'\L	8dd\
8r	8cc'\ 8ee'\	8ee\
8GG/	8g'\ 8dd'\J)	8dd\
=16	=16	=16
4C/	4.e/ 4.cc/	4cc\
(8A\L	.	8cc\
8G\J)	8r	16cc#\
.	.	16cc#\
=17	=17	=17
4F\	8a/L	8dd\
.	8f/ 8a/ 8dd/	8dd\
4G\	8e/ 8g/ 8cc/	8ccn\
.	8d/ 8g/ 8b/J	8b\
=18	=18	=18
*	*^	*
(8F#\L	8a/ (8dd/L	4.d\	4.dd\
8D\	8f#/ 8cc/	.	.
8G\)	8g/ 8b/J)	.	.
8G\J	8r	8r	16g/
.	.	.	16g/
*	*v	*v	*
=19	=19	=19
8E\ 8c\L	8r	8cc\
8G\ (8d\	4g\ 4gg\	8dd\
8c\ 8e\)	.	8ee\
8G\ 8d\J	8ff\ 8bb\	8dd\
=20	=20	=20
*^	*	*
4c/	2A\	8.ee\ (8.ccc\L	4cc\
.	.	16bb\Jk	.
4r	.	16aa\LL	8cc\
.	.	16gg\	.
.	.	16ff\	16cc#\
.	.	16ee\JJ)	16cc#\
*v	*v	*	*
=21	=21	=21
4F\ 4f\	4a\ 4dd\	8.dd\
.	.	16dd\
8G\ 8e\L	8g/ 8cc/L	8ccn\
8G\ 8d\J	8f/ 8g/ 8b/J	8b\
=22	=22	=22
8c\L	8e/ 8g/ 8cc/L	4cc\
8C\	8g/ 8cc/ 8ee/	.
8c\J	8e/ 8g/ 8cc/J	4r
*clefG2	*	*
8e/	(8gg\	.
=23	=23	=23
*>C	*>C	*>C
8c/ 8g/L	8ee\ 8ccc\L)	2r
8e/	(8gg\	.
8c/ 8g/	8ee\) 8ccc\	.
8e/J	(8gg\J	.
=24	=24	=24
4.c;/ 4.g;/	4.ee;\ 4.ccc;\)	4r
.	.	8r
==	==	==
*-	*-	*-
!!!ENC: Craig Stuart Sapp
!!!END: 2004/05/16/
!!!EFL: 060/651
